X: 30080
T: Ohm's Law
R: jig
M: 6/8
K: Dmajor
d3 B3|:~A3 FAd|FAd f>z a|bgb afd|(3efge fdB|
~A3 FAd|FAd f>z a|~b3 afd|1 gec dcB:|2 gec d3||
|:~e3 Beg|Beg fdB|e3 Beg|bgb afd|
e2z Beg|Beg fdB|AFA A2 d|fbf afd:|
|:gfg edB|GBG AFD|BzG (3Bcdg|afd afd|
gzg edB|GBG AFD|BDG (3BcdB|=cAF G3:|

